X: 1
T: Stranger, The
M: 4/4
L: 1/8
R: hornpipe
K: Gmaj
dc|B2 BG A2 (3ABc|dc AF G2 FG|AF DD FA GF|DE FG A2 dc|
B2 BG A2 (3ABc|dc AF G2 FG|AF DD FA GF|D2 D2 D2:|FG||
Ad de f2 (3efe|dc AF A2 FG|Ad de f2 (3efe|d2 d2 d2 FG|
Ad de f2 (3efe|dc AF G2 FG|AF DD FA GF|D2 D2 D2 FG|
Ad de f2 (3efe|dc AF A2 FG|Ad de f2 ed|cd ec de fg|
af ge (3fed ed|dc AF G2 FG|AF DD FA GF|D2 D2 D2|
